packages/astro-components-stencil/src/icons/text-rotate-vertical.svg

<svg width="24" height="24" viewBox="0 0 24 24" fill="none" xmlns="http://www.w3.org/2000/svg">
<path fill-rule="evenodd" clip-rule="evenodd" d="M8.14003 17.85L6.35003 19.64C6.16003 19.84 5.84003 19.84 5.65003 19.64L3.86003 17.85C3.54003 17.54 3.76003 17 4.21003 17H5.00003V5C5.00003 4.44 5.45003 4 6.00003 4C6.55003 4 7.00003 4.45 7.00003 5V17H7.79003C8.24003 17 8.46003 17.54 8.14003 17.85ZM15 5C14.54 5 14.13 5.27 13.95 5.69L10.07 14.66C9.80003 15.29 10.27 16 10.96 16C11.35 16 11.7 15.76 11.85 15.4L12.51 13.8H17.51L18.17 15.4C18.32 15.76 18.67 16 19.06 16C19.75 16 20.21 15.29 19.94 14.66L16.06 5.69C15.87 5.27 15.46 5 15 5ZM13.13 12L15 6.98L16.87 12H13.13Z" fill="black"/>
</svg>

<svg xmlns="http://www.w3.org/2000/svg" viewBox="0 0 24 24"><g xmlns="http://www.w3.org/2000/svg" id="text-rotate-vertical" fill-rule="nonzero">
            <path d="M15 5c-.46 0-.87.27-1.05.69l-3.88 8.97c-.27.63.2 1.34.89 1.34.39 0 .74-.24.89-.6l.66-1.6h5l.66 1.6c.15.36.5.6.89.6.69 0 1.15-.71.88-1.34l-3.88-8.97C15.87 5.27 15.46 5 15 5zm-1.87 7L15 6.98 16.87 12h-3.74zm-6.78 7.64l1.79-1.79c.32-.31.1-.85-.35-.85H7V5c0-.55-.45-1-1-1s-1 .44-1 1v12h-.79c-.45 0-.67.54-.35.85l1.79 1.79c.19.2.51.2.7 0z"/>
        </g></svg>
